!!!COM: Claude Goudimel
!!!OMD: Psalm 140: O Dieu, donne-moy delivrance
**kern	**kern	**kern	**kern
*part4	*part3	*part2	*part1
*staff4	*staff3	*staff2	*staff1
*I"bassus	*I"tenor	*I"contra	*I"superius
*clefC4	*clefC3	*clefC2	*clefG2
!!LO:TX:omd:t=
*M2/2	*M2/2	*M2/2	*M2/2
*met(c|)	*met(c|)	*met(c|)	*met(c|)
=1	=1	=1	=1
1c	1c	1e	1g
=2	=2	=2	=2
2A	2c	2e	2a
2G	2d	2g	2b
=3	=3	=3	=3
1c	1e	1g	1cc
=4	=4	=4	=4
2c	2e	2g	2cc
[2F	[2f	[2a	[2cc
=5	=5	=5	=5
2F]	2f]	2a]	2cc]
2F	2f	2a	2cc
=6	=6	=6	=6
1c	1e	1g	1cc
=7	=7	=7	=7
1G	1d	1g	1b
=8	=8	=8	=8
1r	1r	1r	1r
=9	=9	=9	=9
1c	1e	1g	1cc
=10	=10	=10	=10
2F	2f	2a	2cc
2c	2e	2g	2cc
=11	=11	=11	=11
2G	2d	2g	2b
2A	2c	2e	2a
=12	=12	=12	=12
1E	1B	1e	1g#X
=13	=13	=13	=13
1A	1c	1e	1a
=14	=14	=14	=14
1G	1d	1g	1b
=15	=15	=15	=15
1r	1r	1r	1r
=16	=16	=16	=16
1C	1g	1e	1cc
=17	=17	=17	=17
2F	2f	2c	2a
2C	2e	2g	2cc
=18	=18	=18	=18
1G	1d	1g	1b
=19	=19	=19	=19
1G	1B	1d	1g
=20	=20	=20	=20
2F	2c	2f	2a
2G	2B	2d	[2g
=21	=21	=21	=21
1D	1A	1d	2g]
.	.	.	2f#X
=22	=22	=22	=22
1G	1G	1d	1g
=23	=23	=23	=23
1r	1r	1r	1r
=24	=24	=24	=24
1c	1e	1g	1cc
=25	=25	=25	=25
2F	2f	2a	2cc
2c	2e	2g	2cc
=26	=26	=26	=26
2G	2d	2g	2b
2A	2c	2e	2a
=27	=27	=27	=27
1E	1e	1g	2b
.	.	.	[2cc
=28	=28	=28	=28
1G	1d	1g	2cc]
.	.	.	2b
=29	=29	=29	=29
1C;	1c;	1g;	1cc;
==	==	==	==
*-	*-	*-	*-
!!!software: music21 v.9.7.1
!!!software: music21 v.9.1.0
!!!RDF**kern: > = above
!!!RDF**kern: < = below
